X: 1378
T: Dandy Jim
B: australian traditional tunes wiki
M:4/4
L:1/8
R: Reel
Q: 1/4=100
K:A
V:1 
|:B2|"A"c2ecB2A2|c2e4A2|c2ecB2A2|"D"F2A4A2|
"A"c2ecB2A2|c2e4A2|c2ec"E"B2e2|"D"cBA2A2:|
|:a2|"A"a2e2e2A2|c2e4a2|a2e2e2A2|c2ec"E"B2"A"a2|
"A"a2e2e2A2|""c2e4A2|c2ec"E"B2e2|"D"cBA2A2:|
% abcbook-tune_id 6342d53ae305b47bd3191acd


% abcbook-boost 0
% abcbook-tablature 
% abcbook-transpose 
% abcbook-lastupdated 1665324361976
% abcbook-soundfonts 
% abcbook-repeats 1
% NFF Book 2008

